X:11
T:Champs De Mars. Tho24CDs1792.11, The
M:2/4
L:1/8
Q:1/4=120
C:"83"
B:Thompson 24 CDs 1792
Z:Village Music Project, Chris Partington, 1999 & 2017
W:1st & 2nd Cu: foot it across .| the same back again :|. Lead down the
W:middle,up again, Allemande with your partner :|
K:C
|:(g/a/g/f/) ef|gece|fdBd|(ec)~c2|(g/a/g/f/) ef|gece|(fd)(dB)|{B}c2-c2:|
|:(d/e/d/c/) Bd|ec ~c2|fd~d2|ge~e2|(a/b/a/g/) fa|geeg|(fd)(dB)|{B}c2-c2:|

